X: 1
T: John Kelly's
M: 4/4
L: 1/8
R: reel
K: Edor
Beed Bcdc|BFAF EFGA|B/B/B ed Bcdc|BFAF DEFA|
Be e/e/e Bcdc|BFAF EFGA|Beed Bcde|dBAF DEFA||
B/B/B eB dfaf|edBc cBBA| ~B3c df a/a/f|edBc decA|
B/B/B eB dfaf|edBc cBBA|fgge ~f3e|dBAF EFGA||
